src/images/icon/icon_resource.svg

<svg height="32" viewBox="0 0 32 32" width="32" xmlns="http://www.w3.org/2000/svg" xmlns:xlink="http://www.w3.org/1999/xlink"><linearGradient id="a" x1="50%" x2="50%" y1="0%" y2="100%"><stop offset="0" stop-color="#b6c2cd"/><stop offset="1" stop-color="#36435c"/></linearGradient><g fill="none" fill-rule="evenodd"><circle cx="16" cy="16" r="15.5" stroke="#d8e2f1"/><g transform="translate(7 7.5)"><path d="m11.8428613.04652634c1.1569391.38274615 2.2234334.99424294 3.1346642 1.79860792.2396786.21903247.3587642.53823679.3195714.85968374l-.1092874.98826255c-.08803.80866559.3628666 1.58054906 1.1139778 1.90700283l.9187679.40143493c.2999751.12708369.5200573.38872656.5916594.70269803.2479693 1.18262583.2502305 2.40337674.0075371 3.58675016-.0711726.3158718-.2918364.5781717-.5924131.7041931l-.9255513.4051727c-.7508231.3263685-1.2016618 1.0978503-1.1139778 1.9062553l.1092874.9905051c.0387758.3197955-.079858.6385759-.3188177.8566936-.9085577.8127894-1.9805309 1.4252932-3.145216 1.7971128-.310527.0956866-.6481874.0373776-.9089697-.1554906l-.8109879-.5883227c-.66287736-.480299-1.56281715-.480299-2.2256945 0l-.81777123.5920604c-.26153607.1943633-.60070385.2519248-.91198453.1539956-1.15710439-.3827371-2.22361646-.9949348-3.13466416-1.7993555-.24015985-.2186181-.35916781-.5387631-.31957144-.8596838l.1092874-.9867674c.08803004-.8086656-.36286653-1.5805491-1.11397778-1.9070028l-.91952159-.4021825c-.29939555-.1264148-.51926319-.3878788-.59090568-.702698-.248505-1.18237281-.2510697-2.40261248-.00753706-3.58600261.07086137-.31555149.29090941-.57778677.59090568-.70419313l.92856606-.40517268c.74963928-.327338 1.19912424-1.0985906 1.11096296-1.90625529l-.10777999-.99050519c-.0387758-.31979543.07985805-.63857585.31881773-.85669354.90841895-.81332606 1.9804022-1.42634518 3.14521605-1.79860793.31052697-.09493898.64818734-.03737755.9089697.15698573l.81098788.58757516c.66326148.4799278 1.562433.4799278 2.2256945 0l.8177712-.59206045c.2615361-.19436329.6007039-.25117718.9119845-.15399553zm-2.8428613 2.45347366c-3.3137085 0-6 2.6862915-6 6s2.6862915 6 6 6 6-2.6862915 6-6-2.6862915-6-6-6z" fill="#36435c" fill-rule="nonzero"/><path d="m13.495102 8.2881643.004898.2118357h-2c0-.37959853-.0846028-.73943702-.2359813-1.06168826l.3162239-2.62556217c1.1068003.77594689 1.8482276 2.03755924 1.9148594 3.47541473zm-4.6023207-4.28691205-.95347892 2.23426391c-.80350883.37701924-1.37355688 1.16910844-1.4339847 2.10010815l-.00531768.16437569h-2c0-2.44944241 1.95703115-4.44179571 4.3927813-4.49874775zm1.7408894.30446641-.2536702 2.10934491c-.3625812-.24047132-.79151739-.38888947-1.25347119-.41191717l.81474669-1.90454888c.2383239.05071957.469668.12030584.6923947.20712114z" fill="#b6c2cd" fill-rule="nonzero"/><path d="m9.35585818 3.3004717c.0281511-.16327637.18333373-.27281705.34661011-.24466595.12510915.02157054.22309541.1195568.24466596.24466595l.95436195 5.5352994-.0064536.12780524c-.0640125.6303201-.5963377 1.12219476-1.24354639 1.12219476-.69035593 0-1.25-.55964406-1.25-1.25z" fill="url(#a)" transform="matrix(.96592583 .25881905 -.25881905 .96592583 2.028941 -2.274172)"/></g></g></svg>

<?xml version="1.0" encoding="UTF-8"?>
<svg width="32px" height="32px" viewBox="0 0 32 32" version="1.1" xmlns="http://www.w3.org/2000/svg" xmlns:xlink="http://www.w3.org/1999/xlink">
    
    <defs>
        <linearGradient x1="50%" y1="0%" x2="50%" y2="100%" id="linearGradient-1">
            <stop stop-color="#B6C2CD" offset="0%"></stop>
            <stop stop-color="#36435C" offset="100%"></stop>
        </linearGradient>
    </defs>
    <g id="Dashboard" stroke="none" stroke-width="1" fill="none" fill-rule="evenodd">
        <g id="00-Menu-交互备份" transform="translate(-525.000000, -230.000000)">
            <g id="编组-22" transform="translate(525.000000, 230.000000)">
                <circle id="icon_resource" stroke="#D8E2F1" cx="16" cy="16" r="15.5"></circle>
                <g id="编组-15" transform="translate(6.000000, 6.000000)">
                    <g id="编组-23" transform="translate(1.000000, 1.500000)">
                        <path d="M11.8428613,0.0465263366 C12.9998004,0.429272493 14.0662947,1.04076928 14.9775255,1.84513426 C15.2172041,2.06416673 15.3362897,2.38337105 15.2970969,2.704818 L15.1878095,3.69308055 C15.0997795,4.50174614 15.5506761,5.27362961 16.3017873,5.60008338 L17.2205552,6.00151831 C17.5205303,6.128602 17.7406125,6.39024487 17.8122146,6.70421634 C18.0601839,7.88684217 18.0624451,9.10759308 17.8197517,10.2909665 C17.7485791,10.6068383 17.5279153,10.8691382 17.2273386,10.9951596 L16.3017873,11.4003323 C15.5509642,11.7267008 15.1001255,12.4981826 15.1878095,13.3065876 L15.2970969,14.2970927 C15.3358727,14.6168882 15.2172389,14.9356686 14.9782792,15.1537863 C14.0697215,15.9665757 12.9977483,16.5790795 11.8330632,16.9508991 C11.5225362,17.0465857 11.1848758,16.9882767 10.9240935,16.7954085 L10.1131056,16.2070858 C9.45022824,15.7267868 8.55028845,15.7267868 7.8874111,16.2070858 L7.06963987,16.7991462 C6.8081038,16.9935095 6.46893602,17.051071 6.15765534,16.9531418 C5.00055095,16.5704047 3.93403888,15.958207 3.02299118,15.1537863 C2.78283133,14.9351682 2.66382337,14.6150232 2.70341974,14.2941025 L2.81270714,13.3073351 C2.90073718,12.4986695 2.44984061,11.726786 1.69872936,11.4003323 L0.77920777,10.9981498 C0.479812218,10.871735 0.25994458,10.610271 0.188302085,10.2954518 C-0.0602029111,9.11307899 -0.0627676105,7.89283932 0.180765025,6.70944919 C0.2516264,6.3938977 0.471674436,6.13166242 0.771670711,6.00525606 L1.70023677,5.60008338 C2.44987605,5.27274538 2.89936101,4.50149278 2.81119973,3.69382809 L2.70341974,2.7033229 C2.66464394,2.38352747 2.78327779,2.06474705 3.02223747,1.84662936 C3.93065642,1.0333033 5.00263967,0.420284184 6.16745352,0.0480214344 C6.47798049,-0.046917551 6.81564086,0.0106438755 7.07642322,0.205007159 L7.8874111,0.79258232 C8.55067258,1.27251012 9.4498441,1.27251012 10.1131056,0.79258232 L10.9308768,0.200521865 C11.1924129,0.00615858214 11.5315807,-0.050655305 11.8428613,0.0465263366 Z M9,2.5 C5.6862915,2.5 3,5.1862915 3,8.5 C3,11.8137085 5.6862915,14.5 9,14.5 C12.3137085,14.5 15,11.8137085 15,8.5 C15,5.1862915 12.3137085,2.5 9,2.5 Z" id="形状结合" fill="#36435C" fill-rule="nonzero"></path>
                        <path d="M13.495102,8.2881643 L13.5,8.5 L11.5,8.5 C11.5,8.12040147 11.4153972,7.76056298 11.2640187,7.43831174 L11.5802426,4.81274957 C12.6870429,5.58869646 13.4284702,6.85030881 13.495102,8.2881643 Z M8.8927813,4.00125225 L7.93930238,6.23551616 C7.13579355,6.6125354 6.5657455,7.4046246 6.50531768,8.33562431 L6.5,8.5 L4.5,8.5 C4.5,6.05055759 6.45703115,4.05820429 8.8927813,4.00125225 Z M10.6336707,4.30571866 L10.3800005,6.41506357 C10.0174193,6.17459225 9.58848311,6.0261741 9.12652931,6.0031464 L9.941276,4.09859752 C10.1795999,4.14931709 10.410944,4.21890336 10.6336707,4.30571866 Z" id="形状结合" fill="#B6C2CD" fill-rule="nonzero"></path>
                        <path d="M9.35585818,3.3004717 C9.38400928,3.13719533 9.53919191,3.02765465 9.70246829,3.05580575 C9.82757744,3.07737629 9.9255637,3.17536255 9.94713425,3.3004717 L10.9014962,8.8357711 L10.8950426,8.96357634 C10.8310301,9.59389644 10.2987049,10.0857711 9.65149621,10.0857711 C8.96114028,10.0857711 8.40149621,9.52612704 8.40149621,8.8357711 L8.40149621,8.8357711 L9.35585818,3.3004717 Z" id="形状结合" fill="url(#linearGradient-1)" transform="translate(9.651496, 6.568583) rotate(-345.000000) translate(-9.651496, -6.568583) "></path>
                    </g>
                </g>
            </g>
        </g>
    </g>
</svg>
